X: 39417
T: Tar Road To Sligo, The
R: jig
M: 6/8
K: Dmajor
|:e|fdB Bcd|ecA BAG|F2 A ABc|dcd efg|
fdB Bcd|ecA BAG|FGA a2 g|fdc d2:|2 fdc dd/c/B||
|:A2 f Adf|gfg efg|afd dcd|Bed cBc|
[1 Adf Adf|gfg efg|a^ga b=ge|edc dcB:|
[2 fdA gfg|a^ga b/a/=ge|a^ga b=ge|edc d2||

